X:1
T:Quest'amoroso caldo
T:Giammateo Asola
T:Source : Madrigali a due voci---Venetia---G.Vincenti---1587. Editor: André Vierendeels (18/04/17).
T:Notes : Original clefs : C1, C1 Original note values have been halved Editorial accidentals above the staff "Fuga di un tempo all' unisono"
T:Quest'amoroso caldo
T:©
T:©
C:Giammateo Asola
Z:©
%%score [ 1 2 ]
L:1/8
Q:1/4=120
M:2/2
K:C
V:1 treble nm="Soprano 1" snm="S 1"
V:2 treble nm="Soprano 2" snm="S 2"
V:1
 A4 G2 E2 | F2 F2 E4 | D2 d2 d2 c2 | d2 B2 A3 G | FD d3 c/B/ c2 | d2 G2 A2 A2 | G2 E2 F4 | %7
w: Quest' a- mo-|ro- so cal-|do, quest' a- mo-|ro- sa cal- *||do, lo spir- to|no- stro'a- vi-|
 E4 z2 A2 | A2 G2 c2 c2 | B2 B2 A2 e2- | ed d4 c2 | d4 z2 A2 | F2 G2 A2 Ac- | cB/A/ B2 c3 c | %14
w: va, e|le ren- de nel|ben con- stan- t'e|_ _ sal- *|do, quest'|è ca- gion che vi-|* * * * va, ne|
 d2 d2 e2 A2 | B4 A2 F2 | D2 E2 F2 DA- | AG/F/ G2 A4 | z2 B2 c3 c | B2 G2 A4 | G4 z2 c2 | %21
w: l'alm' o- gni vir-|tu- te, quest'|ap- por- ta sa- lu-|* * * * te,|e quel- la|ve- ra gio-|a, per|
 c2 B2 c2 A2 | G3 F E2 F2- | FE E3 D D2- | D2 C2 D4 | z2 A2 A2 B2 | c3 B A2 G2 | A3 G F2 E2- | %28
w: cui con- vien che|l'huom' al sen- so|_ _ mo- * *|* * ia,|per cui con-|vien che l'huom' al|sen- * * so|
 ED D4 C2 |"^#" DEFD E4 | D8 |] %31
w: _ _ mo- *||ia.|
V:2
 z8 | A4 G2 E2 | F2 F2 E4 | D2 d2 d2 c2 | d2 B2 A3 G | FD d3 c/B/ c2 | d2 G2 A2 A2 | G2 E2 F4 | %8
w: |Quest' a- mo-|ro- so cal-|do, quest' a- mo-|ro- so cal- *||do, lo spir- to|no- stro'a- vi-|
 E4 z2 A2 | A2 G2 c2 c2 | B2 B2 A2 e2- | ed d4 c2 | d4 z2 A2 | F2 G2 A2 Ac- | cB/A/ B2 c3 c | %15
w: va, e|le ren- de nel|ben con- stan- t'e|_ _ sal- *|do, quest'|è ca- gion che vi-|* * * * va, ne|
 d2 d2 e2 A2 | B4 A2 F2 | D2 E2 F2 DA- | AG/F/ G2 A4 | z2 B2 c3 c | B2 G2 A4 | G4 z2 c2 | %22
w: l'alm' o- gni vir-|tu- te, quest'|ap- por- ta sa- lu-|* * * * te,|e quel- la|ve- ra gio-|a, per|
 c2 B2 c2 A2 | G3 F E2 F2- | FE E3 D D2- | D2 C2 D4 | z2 A2 A2 B2 | c3 B A2 G2 | A3 G F2 E2- | %29
w: cui con- vien che|l'huom' al sen- so|_ _ mo- * *|* * ia,|per cui con-|vien che l'huom' al|sen- * * so|
 ED D4 C2 |"^#" D8 |] %31
w: _ _ mo- *|ia.|

